res_src/Yamaha_Logo.svg

<?xml version="1.0" encoding="UTF-8" standalone="no"?>
<!-- Created with Inkscape (http://www.inkscape.org/) -->

<svg
   xmlns:dc="http://purl.org/dc/elements/1.1/"
   xmlns:cc="http://creativecommons.org/ns#"
   xmlns:rdf="http://www.w3.org/1999/02/22-rdf-syntax-ns#"
   xmlns:svg="http://www.w3.org/2000/svg"
   xmlns="http://www.w3.org/2000/svg"
   xmlns:xlink="http://www.w3.org/1999/xlink"
   xmlns:sodipodi="http://sodipodi.sourceforge.net/DTD/sodipodi-0.dtd"
   xmlns:inkscape="http://www.inkscape.org/namespaces/inkscape"
   width="124.11562"
   height="124.17934"
   id="svg33440"
   sodipodi:version="0.32"
   inkscape:version="0.92.2 (5c3e80d, 2017-08-06)"
   version="1.0"
   sodipodi:docname="Yamaha_Logo_2.svg"
   viewBox="0 0 116.3584 116.41815"
   inkscape:export-filename="C:\__Data\Eclipse - Workspace\YamahaControl\res\Yamaha_Logo_256.png"
   inkscape:export-xdpi="198.00999"
   inkscape:export-ydpi="198.00999">
  <defs
     id="defs33442">
    <linearGradient
       inkscape:collect="always"
       id="linearGradient844">
      <stop
         style="stop-color:#7b7b7b;stop-opacity:1"
         offset="0"
         id="stop840" />
      <stop
         style="stop-color:#ffffff;stop-opacity:1"
         offset="1"
         id="stop842" />
    </linearGradient>
    <linearGradient
       inkscape:collect="always"
       xlink:href="#linearGradient844"
       id="linearGradient846"
       x1="94.291168"
       y1="93.536613"
       x2="29.686832"
       y2="32.673534"
       gradientUnits="userSpaceOnUse" />
  </defs>
  <sodipodi:namedview
     id="base"
     pagecolor="#ffffff"
     bordercolor="#666666"
     borderopacity="1.0"
     inkscape:pageopacity="0.0"
     inkscape:pageshadow="2"
     inkscape:zoom="3.959798"
     inkscape:cx="73.05386"
     inkscape:cy="63.116795"
     inkscape:document-units="px"
     inkscape:current-layer="svg33440"
     inkscape:window-width="1393"
     inkscape:window-height="760"
     inkscape:window-x="442"
     inkscape:window-y="137"
     showgrid="false"
     inkscape:window-maximized="0" />
  <metadata
     id="metadata33445">
    <rdf:RDF>
      <cc:Work
         rdf:about="">
        <dc:format>image/svg+xml</dc:format>
        <dc:type
           rdf:resource="http://purl.org/dc/dcmitype/StillImage" />
        <dc:title />
      </cc:Work>
    </rdf:RDF>
  </metadata>
  <circle
     style="fill:url(#linearGradient846);fill-opacity:1;stroke:none;stroke-width:37.33817291;stroke-linejoin:miter;stroke-miterlimit:4;stroke-dasharray:none;stroke-opacity:1"
     id="path827"
     cx="58.223732"
     cy="58.023445"
     r="57.92411" />
  <g
     inkscape:label="Ebene 1"
     inkscape:groupmode="layer"
     id="layer1"
     transform="translate(-111.12552,-129.10531)">
    <g
       id="g33493">
      <g
         transform="matrix(1.193224,0,0,1.193224,20.77841,-593.6372)"
         id="g33391">
        <path
           id="path31543"
           class="ps01"
           d="m 75.716807,654.51369 c 0,-26.93203 21.825958,-48.80805 48.757983,-48.80805 26.93203,0 48.75799,21.87602 48.75799,48.80805 0,26.93203 -21.82596,48.75799 -48.75799,48.75799 -26.932025,0 -48.757983,-21.82596 -48.757983,-48.75799 z m 48.757983,46.65549 c 25.78067,0 46.70555,-20.87483 46.70555,-46.65549 0,-25.83072 -20.92488,-46.70554 -46.70555,-46.70554 -25.780656,0 -46.705542,20.87482 -46.705542,46.70554 0,25.78066 20.924886,46.65549 46.705542,46.65549"
           style="fill:#000000;fill-rule:nonzero;stroke:none"
           inkscape:connector-curvature="0" />
        <path
           id="path31545"
           class="ps01"
           d="m 83.075559,654.51369 c 0,-22.87721 18.522031,-41.44929 41.399231,-41.44929 22.87721,0 41.4493,18.57208 41.4493,41.44929 0,22.87721 -18.57209,41.39924 -41.4493,41.39924 -22.8772,0 -41.399231,-18.52203 -41.399231,-41.39924 z m 75.339601,18.77233 -6.75804,-7.90941 c -0.10012,-0.10012 -0.20024,-0.15018 -0.30036,-0.2503 -0.35041,-0.20024 -0.75089,-0.20024 -1.1013,0 -1.05126,0.45054 -2.30274,0.45054 -3.35399,-0.15018 -0.95113,-0.55065 -1.55185,-1.45172 -1.75209,-2.45291 -0.45053,-2.55304 -2.00238,-4.90584 -4.40524,-6.25744 l -3.05363,-1.75209 17.27054,-9.96185 -2.15256,-3.7044 -19.37304,11.16327 -2.3528,-1.3516 v -2.65316 l 19.37304,-11.21333 -2.1025,-3.70441 -17.27054,9.96185 v -3.50417 c 0,-2.80333 -1.25149,-5.25625 -3.20381,-6.95827 -0.75089,-0.65078 -1.25149,-1.65197 -1.25149,-2.75328 0,-1.20143 0.60072,-2.30274 1.55185,-2.95351 0.30036,-0.20024 0.5006,-0.55066 0.5006,-0.95113 0,-0.15018 0,-0.30036 -0.0501,-0.40048 l -3.45411,-9.81167 c -0.10012,-0.30036 -0.40048,-0.50059 -0.70084,-0.50059 -0.30035,0 -0.60071,0.20023 -0.70083,0.50059 l -3.45411,9.81167 c -0.0501,0.10012 -0.0501,0.2503 -0.0501,0.40048 0,0.40047 0.20024,0.75089 0.5006,0.95113 0.95113,0.65077 1.55184,1.75208 1.55184,2.95351 0,1.10131 -0.45053,2.1025 -1.25148,2.75328 -1.95233,1.70202 -3.20381,4.15494 -3.20381,6.95827 v 3.50417 l -17.27054,-9.96185 -2.102504,3.70441 19.373044,11.21333 v 2.65316 l -2.30274,1.3516 -19.423102,-11.16327 -2.15256,3.7044 17.270542,9.96185 -3.00357,1.75209 c -2.45292,1.3516 -3.95471,3.7044 -4.4553,6.25744 -0.20024,1.00119 -0.80096,1.90226 -1.75209,2.45291 -1.05125,0.60072 -2.302736,0.60072 -3.353986,0.15018 -0.300357,-0.20024 -0.750893,-0.20024 -1.10131,0 -0.100119,0.10012 -0.200238,0.15018 -0.250298,0.2503 l -6.808096,7.90941 c -0.200238,0.25029 -0.250298,0.55065 -0.100119,0.85101 0.200238,0.30036 0.500595,0.40048 0.800952,0.35042 l 10.262207,-1.90227 c 0.10012,-0.0501 0.20024,-0.10012 0.35041,-0.15017 0.35042,-0.20024 0.55066,-0.55066 0.55066,-0.90108 v 0 c 0.10012,-1.15137 0.75089,-2.25268 1.80214,-2.85339 0.95113,-0.55065 2.05244,-0.65077 3.00357,-0.30036 2.45292,0.85101 5.2062,0.70084 7.65911,-0.70083 l 3.00358,-1.75208 v 19.92369 h 4.30512 v -22.37661 l 2.30273,-1.35161 2.3528,1.35161 v 22.37661 h 4.25506 v -19.92369 l 3.05363,1.75208 c 2.40286,1.40167 5.15614,1.55184 7.60905,0.70083 0.95114,-0.35041 2.05245,-0.25029 3.00358,0.30036 1.05125,0.60071 1.70202,1.70202 1.80214,2.85339 v 0 c 0.0501,0.35042 0.2503,0.70084 0.55065,0.90108 0.15018,0.05 0.2503,0.10011 0.40048,0.15017 l 10.21215,1.90227 c 0.30035,0.0501 0.60071,-0.0501 0.80095,-0.35042 0.15018,-0.30036 0.10012,-0.60072 -0.10012,-0.85101"
           style="fill:#000000;fill-rule:nonzero;stroke:none"
           inkscape:connector-curvature="0" />
        <path
           id="path31547"
           class="ps01"
           d="m 124.47479,657.61738 -2.70321,-1.55184 v -3.10369 l 2.70321,-1.55185 2.70322,1.55185 v 3.10369"
           style="fill:#000000;fill-rule:nonzero;stroke:none"
           inkscape:connector-curvature="0" />
        <path
           id="path31549"
           class="ps01"
           d="m 122.17206,638.94518 c 0,-1.30155 1.00119,-2.3528 2.30273,-2.3528 1.30155,0 2.3528,1.05125 2.3528,2.3528 v 6.5578 l -2.3528,1.3516 -2.30273,-1.3516"
           style="fill:#000000;fill-rule:nonzero;stroke:none"
           inkscape:connector-curvature="0" />
        <path
           id="path31551"
           class="ps01"
           d="m 112.16015,664.2753 c -1.10131,0.65077 -2.50298,0.2503 -3.15375,-0.85101 -0.65078,-1.10131 -0.2503,-2.55304 0.85101,-3.15375 l 5.70679,-3.30393 2.30274,1.35161 v 2.70321"
           style="fill:#000000;fill-rule:nonzero;stroke:none"
           inkscape:connector-curvature="0" />
        <path
           id="path31553"
           class="ps01"
           d="m 139.94319,663.42429 c -0.65077,1.10131 -2.05244,1.50178 -3.15375,0.85101 l -5.70679,-3.25387 v -2.70321 l 2.3528,-1.35161 5.65673,3.30393 c 1.15137,0.60071 1.50178,2.05244 0.85101,3.15375"
           style="fill:#000000;fill-rule:nonzero;stroke:none"
           inkscape:connector-curvature="0" />
      </g>
    </g>
  </g>
</svg>

<?xml version="1.0" encoding="UTF-8" standalone="no"?>
<!-- Created with Inkscape (http://www.inkscape.org/) -->
<svg
   xmlns:dc="http://purl.org/dc/elements/1.1/"
   xmlns:cc="http://web.resource.org/cc/"
   xmlns:rdf="http://www.w3.org/1999/02/22-rdf-syntax-ns#"
   xmlns:svg="http://www.w3.org/2000/svg"
   xmlns="http://www.w3.org/2000/svg"
   xmlns:sodipodi="http://sodipodi.sourceforge.net/DTD/sodipodi-0.dtd"
   xmlns:inkscape="http://www.inkscape.org/namespaces/inkscape"
   width="514.29456"
   height="116.41814"
   id="svg33440"
   sodipodi:version="0.32"
   inkscape:version="0.44"
   version="1.0"
   sodipodi:docbase="E:\Logos"
   sodipodi:docname="Yamaha_Logo.svg">
  <defs
     id="defs33442" />
  <sodipodi:namedview
     id="base"
     pagecolor="#ffffff"
     bordercolor="#666666"
     borderopacity="1.0"
     inkscape:pageopacity="0.0"
     inkscape:pageshadow="2"
     inkscape:zoom="0.35"
     inkscape:cx="350"
     inkscape:cy="106.67783"
     inkscape:document-units="px"
     inkscape:current-layer="layer1"
     inkscape:window-width="925"
     inkscape:window-height="573"
     inkscape:window-x="90"
     inkscape:window-y="324" />
  <metadata
     id="metadata33445">
    <rdf:RDF>
      <cc:Work
         rdf:about="">
        <dc:format>image/svg+xml</dc:format>
        <dc:type
           rdf:resource="http://purl.org/dc/dcmitype/StillImage" />
      </cc:Work>
    </rdf:RDF>
  </metadata>
  <g
     inkscape:label="Ebene 1"
     inkscape:groupmode="layer"
     id="layer1"
     transform="translate(-111.1255,-129.1053)">
    <g
       id="g33493">
      <g
         transform="matrix(1.193224,0,0,1.193224,20.77841,-593.6372)"
         id="g33399">
        <path
           id="path31531"
           class="ps01"
           d="M 405.55908,695.16203 L 405.55908,613.86535 L 419.77599,613.86535 L 419.77599,645.00238 L 435.39457,645.00238 L 435.39457,613.86535 L 449.91183,613.86535 L 449.91183,695.16203 L 435.39457,695.16203 L 435.39457,659.41953 L 419.77599,659.41953 L 419.77599,695.16203"
           style="fill:black;fill-rule:nonzero;stroke:none" />
        <path
           id="path31533"
           class="ps01"
           d="M 197.36148,663.67459 L 181.59272,613.86535 L 195.75957,613.86535 L 205.47112,645.50298 L 216.23392,613.86535 L 229.54976,613.86535 L 213.18029,662.07268 L 213.18029,695.16203 L 197.36148,695.16203"
           style="fill:black;fill-rule:nonzero;stroke:none" />
        <path
           id="path31535"
           class="ps01"
           d="M 281.91203,695.16203 L 294.67721,695.16203 L 294.67721,633.8391 L 305.54013,687.15251 L 317.4543,687.15251 L 327.11579,632.98809 L 327.11579,695.16203 L 342.03353,695.16203 L 342.03353,613.86535 L 318.85597,613.86535 L 312.04787,652.51131 L 304.13847,613.86535 L 281.91203,613.86535"
           style="fill:black;fill-rule:nonzero;stroke:none" />
        <path
           id="path31537"
           class="ps01"
           d="M 471.28725,613.86535 L 493.31345,613.86535 L 506.7294,695.16203 L 492.21214,695.16203 L 489.15851,676.23953 L 472.78904,676.23953 L 469.58523,695.16203 L 456.41957,695.16203 L 471.28725,613.86535 z M 486.95589,662.6734 L 481.09892,626.33017 L 475.04172,662.6734 L 486.95589,662.6734"
           style="fill:black;fill-rule:nonzero;stroke:none" />
        <path
           id="path31539"
           class="ps01"
           d="M 363.40896,613.86535 L 385.38509,613.86535 L 398.80105,695.16203 L 384.33384,695.16203 L 381.23015,676.23953 L 364.86068,676.23953 L 361.70693,695.16203 L 348.54127,695.16203 L 363.40896,613.86535 z M 367.11336,662.6734 L 379.07759,662.6734 L 373.17056,626.33017 L 367.11336,662.6734"
           style="fill:black;fill-rule:nonzero;stroke:none" />
        <path
           id="path31541"
           class="ps01"
           d="M 224.89422,695.16203 L 239.7619,613.86535 L 261.73804,613.86535 L 275.154,695.16203 L 260.63673,695.16203 L 257.5831,676.23953 L 241.21363,676.23953 L 238.05988,695.16203 L 224.89422,695.16203 z M 243.46631,662.6734 L 255.43054,662.6734 L 249.52351,626.33017 L 243.46631,662.6734"
           style="fill:black;fill-rule:nonzero;stroke:none" />
      </g>
      <g
         transform="matrix(1.193224,0,0,1.193224,20.77841,-593.6372)"
         id="g33391">
        <path
           id="path31543"
           class="ps01"
           d="M 75.716807,654.51369 C 75.716807,627.58166 97.542765,605.70564 124.47479,605.70564 C 151.40682,605.70564 173.23278,627.58166 173.23278,654.51369 C 173.23278,681.44572 151.40682,703.27168 124.47479,703.27168 C 97.542765,703.27168 75.716807,681.44572 75.716807,654.51369 z M 124.47479,701.16918 C 150.25546,701.16918 171.18034,680.29435 171.18034,654.51369 C 171.18034,628.68297 150.25546,607.80815 124.47479,607.80815 C 98.694134,607.80815 77.769248,628.68297 77.769248,654.51369 C 77.769248,680.29435 98.694134,701.16918 124.47479,701.16918"
           style="fill:black;fill-rule:nonzero;stroke:none" />
        <path
           id="path31545"
           class="ps01"
           d="M 83.075559,654.51369 C 83.075559,631.63648 101.59759,613.0644 124.47479,613.0644 C 147.352,613.0644 165.92409,631.63648 165.92409,654.51369 C 165.92409,677.3909 147.352,695.91293 124.47479,695.91293 C 101.59759,695.91293 83.075559,677.3909 83.075559,654.51369 z M 158.41516,673.28602 L 151.65712,665.37661 C 151.557,665.27649 151.45688,665.22643 151.35676,665.12631 C 151.00635,664.92607 150.60587,664.92607 150.25546,665.12631 C 149.2042,665.57685 147.95272,665.57685 146.90147,664.97613 C 145.95034,664.42548 145.34962,663.52441 145.14938,662.52322 C 144.69885,659.97018 143.147,657.61738 140.74414,656.26578 L 137.69051,654.51369 L 154.96105,644.55184 L 152.80849,640.84744 L 133.43545,652.01071 L 131.08265,650.65911 L 131.08265,648.00595 L 150.45569,636.79262 L 148.35319,633.08821 L 131.08265,643.05006 L 131.08265,639.54589 C 131.08265,636.74256 129.83116,634.28964 127.87884,632.58762 C 127.12795,631.93684 126.62735,630.93565 126.62735,629.83434 C 126.62735,628.63291 127.22807,627.5316 128.1792,626.88083 C 128.47956,626.68059 128.6798,626.33017 128.6798,625.9297 C 128.6798,625.77952 128.6798,625.62934 128.62974,625.52922 L 125.17563,615.71755 C 125.07551,615.41719 124.77515,615.21696 124.47479,615.21696 C 124.17444,615.21696 123.87408,615.41719 123.77396,615.71755 L 120.31985,625.52922 C 120.26979,625.62934 120.26979,625.77952 120.26979,625.9297 C 120.26979,626.33017 120.47003,626.68059 120.77039,626.88083 C 121.72152,627.5316 122.32223,628.63291 122.32223,629.83434 C 122.32223,630.93565 121.8717,631.93684 121.07075,632.58762 C 119.11842,634.28964 117.86694,636.74256 117.86694,639.54589 L 117.86694,643.05006 L 100.5964,633.08821 L 98.493896,636.79262 L 117.86694,648.00595 L 117.86694,650.65911 L 115.5642,652.01071 L 96.141098,640.84744 L 93.988538,644.55184 L 111.25908,654.51369 L 108.25551,656.26578 C 105.80259,657.61738 104.3008,659.97018 103.80021,662.52322 C 103.59997,663.52441 102.99925,664.42548 102.04812,664.97613 C 100.99687,665.57685 99.745384,665.57685 98.694134,665.12631 C 98.393777,664.92607 97.943241,664.92607 97.592824,665.12631 C 97.492705,665.22643 97.392586,665.27649 97.342526,665.37661 L 90.53443,673.28602 C 90.334192,673.53631 90.284132,673.83667 90.434311,674.13703 C 90.634549,674.43739 90.934906,674.53751 91.235263,674.48745 L 101.49747,672.58518 C 101.59759,672.53512 101.69771,672.48506 101.84788,672.43501 C 102.1983,672.23477 102.39854,671.88435 102.39854,671.53393 L 102.39854,671.53393 C 102.49866,670.38256 103.14943,669.28125 104.20068,668.68054 C 105.15181,668.12989 106.25312,668.02977 107.20425,668.38018 C 109.65717,669.23119 112.41045,669.08102 114.86336,667.67935 L 117.86694,665.92727 L 117.86694,685.85096 L 122.17206,685.85096 L 122.17206,663.47435 L 124.47479,662.12274 L 126.82759,663.47435 L 126.82759,685.85096 L 131.08265,685.85096 L 131.08265,665.92727 L 134.13628,667.67935 C 136.53914,669.08102 139.29242,669.23119 141.74533,668.38018 C 142.69647,668.02977 143.79778,668.12989 144.74891,668.68054 C 145.80016,669.28125 146.45093,670.38256 146.55105,671.53393 L 146.55105,671.53393 C 146.60111,671.88435 146.80135,672.23477 147.1017,672.43501 C 147.25188,672.48506 147.352,672.53512 147.50218,672.58518 L 157.71433,674.48745 C 158.01468,674.53751 158.31504,674.43739 158.51528,674.13703 C 158.66546,673.83667 158.6154,673.53631 158.41516,673.28602"
           style="fill:black;fill-rule:nonzero;stroke:none" />
        <path
           id="path31547"
           class="ps01"
           d="M 124.47479,657.61738 L 121.77158,656.06554 L 121.77158,652.96185 L 124.47479,651.41 L 127.17801,652.96185 L 127.17801,656.06554"
           style="fill:black;fill-rule:nonzero;stroke:none" />
        <path
           id="path31549"
           class="ps01"
           d="M 122.17206,638.94518 C 122.17206,637.64363 123.17325,636.59238 124.47479,636.59238 C 125.77634,636.59238 126.82759,637.64363 126.82759,638.94518 L 126.82759,645.50298 L 124.47479,646.85458 L 122.17206,645.50298"
           style="fill:black;fill-rule:nonzero;stroke:none" />
        <path
           id="path31551"
           class="ps01"
           d="M 112.16015,664.2753 C 111.05884,664.92607 109.65717,664.5256 109.0064,663.42429 C 108.35562,662.32298 108.7561,660.87125 109.85741,660.27054 L 115.5642,656.96661 L 117.86694,658.31822 L 117.86694,661.02143"
           style="fill:black;fill-rule:nonzero;stroke:none" />
        <path
           id="path31553"
           class="ps01"
           d="M 139.94319,663.42429 C 139.29242,664.5256 137.89075,664.92607 136.78944,664.2753 L 131.08265,661.02143 L 131.08265,658.31822 L 133.43545,656.96661 L 139.09218,660.27054 C 140.24355,660.87125 140.59396,662.32298 139.94319,663.42429"
           style="fill:black;fill-rule:nonzero;stroke:none" />
      </g>
    </g>
  </g>
</svg>
